X: 26850
T: Mince In A Basket
R: reel
M: 4/4
K: Gmajor
B3B BAGF|DEED EFGE|D2GB d2cB|Bccc cBAc|
ABBB BAGF|DEED EFGE|DGBG FDCA,|A,G,B,D G3A|
B3B BAGF|DEED EFGE|D2GB d2cB|cecB A^cd=c|
ABBB BAGF|DEED EFGE|DGBG FDCA,|A,G,B,D G3A|
B2BB BAGB|cecA cecB|A^cec A^cec|df^cd f^cdf|
g2dB G2FD|E2ED EFGE|DGBG FDCA,|A,G,B,D G3A|
B2BB BAGB|cecA cecB|A^cec A^cec|ef2f fedc|
ABBB BAGF|DEED EFGE|DGBG FDCA,|A,G,B,D G4|

